icons/1_Primary/Vauld.svg

<svg width="1024" height="1024" viewBox="0 0 1024 1024" fill="none" xmlns="http://www.w3.org/2000/svg">
<g clip-path="url(#clip0_2_3828)">
<path d="M512 1024C794.77 1024 1024 794.77 1024 512C1024 229.23 794.77 0 512 0C229.23 0 0 229.23 0 512C0 794.77 229.23 1024 512 1024Z" fill="#728DBE"/>
<path d="M508.37 560.28V784.53L460.93 747.62C381.32 685.74 318.52 590.74 283.67 480.23C269.973 436.24 260.703 390.992 256 345.16C305.701 313.32 360.911 291.042 418.79 279.47C419.385 330.625 427.44 381.42 442.7 430.25C443.53 433.39 444.61 436.77 445.7 440.05C446.53 441.96 447.18 444.05 447.8 445.98C449.28 449.98 450.54 453.72 452.01 457.54C452.84 459.6 453.67 461.54 454.31 463.37C456.81 469.45 459.22 475.57 462.05 481.45C463.05 483.95 464.35 486.36 465.39 488.99C465.83 489.82 466.26 490.65 466.66 491.49C467.74 493.99 468.96 496.4 470.23 498.9C481.022 520.493 493.79 541.041 508.37 560.28ZM716.13 544.57C743.496 481.147 760.989 413.908 768 345.19C718.298 313.357 663.088 291.086 605.21 279.52C603.51 387.52 570.63 488.24 515.89 559.91V784.16L559.07 750.7L563.28 747.42C569.553 742.373 575.697 737.186 581.71 731.86L582.47 731.18C584.203 729.64 585.927 728.09 587.64 726.53C588.46 725.79 589.26 725.03 590.07 724.28C591.21 723.23 592.35 722.18 593.48 721.12C595.06 719.633 596.627 718.136 598.18 716.63L599.18 715.63C649.27 667.05 689.046 608.867 716.13 544.56V544.57Z" fill="white"/>
</g>
<defs>
<clipPath id="clip0_2_3828">
<rect width="1024" height="1024" fill="white"/>
</clipPath>
</defs>
</svg>

<svg width="1024" height="1024" fill="none" xmlns="http://www.w3.org/2000/svg"><g clip-path="url(#a)"><path d="M512 1024c282.77 0 512-229.23 512-512S794.77 0 512 0 0 229.23 0 512s229.23 512 512 512Z" fill="#728DBE"/><path d="M508.37 560.28v224.25l-47.44-36.91c-79.61-61.88-142.41-156.88-177.26-267.39A691.922 691.922 0 0 1 256 345.16a474.086 474.086 0 0 1 162.79-65.69 525.998 525.998 0 0 0 23.91 150.78c.83 3.14 1.91 6.52 3 9.8.83 1.91 1.48 4 2.1 5.93 1.48 4 2.74 7.74 4.21 11.56.83 2.06 1.66 4 2.3 5.83 2.5 6.08 4.91 12.2 7.74 18.08 1 2.5 2.3 4.91 3.34 7.54.44.83.87 1.66 1.27 2.5 1.08 2.5 2.3 4.91 3.57 7.41a391.146 391.146 0 0 0 38.14 61.38Zm207.76-15.71A676.601 676.601 0 0 0 768 345.19a474.082 474.082 0 0 0-162.79-65.67c-1.7 108-34.58 208.72-89.32 280.39v224.25l43.18-33.46 4.21-3.28a509.185 509.185 0 0 0 18.43-15.56l.76-.68a570.63 570.63 0 0 0 5.17-4.65c.82-.74 1.62-1.5 2.43-2.25 1.14-1.05 2.28-2.1 3.41-3.16a434.823 434.823 0 0 0 4.7-4.49l1-1a518.867 518.867 0 0 0 116.95-171.07v.01Z" fill="#fff"/></g><defs><clipPath id="a"><path fill="#fff" d="M0 0h1024v1024H0z"/></clipPath></defs></svg>
